assets/icons/24px/outline/cursor-pointer-24px.svg

<svg width="24" height="24" viewBox="0 0 24 24" fill="none" xmlns="http://www.w3.org/2000/svg">
<path d="M15.0597 12.8646L18.8251 11.3305C19.7541 10.952 20.2186 10.7628 20.2238 10.4323C20.229 10.1018 19.7706 9.89806 18.8539 9.49063L11.5036 6.22384C7.49895 4.44398 5.49661 3.55405 4.52533 4.52533C3.55405 5.49661 4.44398 7.49895 6.22384 11.5036L9.49063 18.8539C9.89806 19.7706 10.1018 20.229 10.4323 20.2238C10.7628 20.2186 10.952 19.7541 11.3305 18.8251L12.8646 15.0597L12.8646 15.0597C13.178 14.2905 13.3347 13.9058 13.6202 13.6202C13.9058 13.3347 14.2905 13.178 15.0597 12.8646Z" stroke="white" stroke-width="2" stroke-linecap="round" stroke-linejoin="round"/>
</svg>

<svg width="24" height="24" fill="none" xmlns="http://www.w3.org/2000/svg"><path d="M15.06 12.865l3.765-1.534c.93-.379 1.394-.568 1.399-.899.005-.33-.453-.534-1.37-.941l-7.35-3.267c-4.005-1.78-6.007-2.67-6.979-1.699-.971.972-.081 2.974 1.699 6.979l3.267 7.35c.407.917.61 1.375.941 1.37.33-.005.52-.47.899-1.399l1.534-3.765c.313-.77.47-1.154.755-1.44.286-.285.67-.442 1.44-.755z" stroke="#fff" stroke-width="2" stroke-linecap="round" stroke-linejoin="round"/></svg>
